X:2
T:Elegant and Everything
C:copyright 1997 Kaubells
R:Reel
E:16
M:C
K:C
"G7"g2ga gfed|"C"c2e2G2 (3cdc|"G7"BGBd fdBd|"C6"cGce g2e2|
"G7"g2ga gfed|"C"c2e2G2 (3cdc|"G7"BGBd fgab|"C"c'2c2 c4:|
E:24
"F"a2c'2 "Em"g2e2|"Dm"f2<g2 "C"e4|"F"a2c'2"D7"c'2bc'|"G"d'4g4|
"F"a2c'2 "Em"g2e2|"Dm"f2<g2 "C"e4|"Ab"_e2c2 _e2c2|"G"g8:|
T:  Last time only:
"F"a2c'2 "Em"g2e2|"Dm"f2<g2 "C"e4|"Ab"_e2c2"G7"d2B2|"C"c4 .c'z3|]
